X:1
T: John McNeil's Reel
C:
R:Reel
Q: 232
K:A
M:4/4
L:1/8
|:"3 times"E2|A,2 CE FE CE|AE CE FE CE|A,2 CE FE CE|FA GF ED CB,|
A,2 CE FE CE|AE CE FE DC|B,D CE DF EG|FA GB cA Af|
eA fA eA ca|eA fA e2 f1/2g1/2a|eA fA eA ce|df ca B2 d1/2e1/2f|
eA fA eA ca|eA fA e2 e1/2f1/2g|ag ag fe dc|
|1BA GF ED CB,:|2BA GF ED CB,:|"3rd time"DE FG A3||
